assets/img/verified.svg

<?xml version="1.0" encoding="UTF-8"?>
<svg width="44px" height="50px" viewBox="0 0 44 50" version="1.1" xmlns="http://www.w3.org/2000/svg" xmlns:xlink="http://www.w3.org/1999/xlink">
    <!-- Generator: Sketch 64 (93537) - https://sketch.com -->
    <title>protection</title>
    <desc>Created with Sketch.</desc>
    <defs>
        <linearGradient x1="50%" y1="100%" x2="50%" y2="-3.39531535e-15%" id="linearGradient-1">
            <stop stop-color="#C3FFE8" offset="0%"></stop>
            <stop stop-color="#F0FFF4" offset="99.73%"></stop>
        </linearGradient>
        <linearGradient x1="50%" y1="100%" x2="50%" y2="0%" id="linearGradient-2">
            <stop stop-color="#00B59C" offset="0%"></stop>
            <stop stop-color="#9CFFAC" offset="100%"></stop>
        </linearGradient>
    </defs>
    <g id="Welcome" stroke="none" stroke-width="1" fill="none" fill-rule="evenodd">
        <g id="lpw-addons-1.1" transform="translate(-753.000000, -331.000000)" fill-rule="nonzero">
            <g id="protection" transform="translate(753.000000, 331.000000)">
                <path d="M22.0043022,45.2678711 C21.64008,45.2678711 21.2831911,45.2011719 20.9436089,45.0696289 C18.8146933,44.2447266 14.7156533,42.393457 11.1811822,39.2617188 C6.68154667,35.274707 4.4,30.5092773 4.4,25.0976562 L4.4,11.6114258 C4.4,10.5707031 4.95997333,9.59960938 5.86128889,9.07734375 C7.19752,8.303125 8.31345778,7.18847656 9.08864,5.85400391 C9.61155556,4.95380859 10.5838578,4.39453125 11.6258756,4.39453125 L32.3740267,4.39453125 C33.4161422,4.39453125 34.3883467,4.95380859 34.9112622,5.85400391 C35.6864444,7.18847656 36.8023822,8.303125 38.1386133,9.07734375 C39.0400267,9.59970703 39.6,10.5707031 39.6,11.6114258 L39.6,25.0976562 C39.6,30.5217773 37.3257867,35.2892578 32.8404267,39.2676758 C29.3053689,42.4032227 25.1946933,44.2500977 23.0589333,45.0719727 C22.7211111,45.2019531 22.3663733,45.2678711 22.0043022,45.2678711 Z" id="Path" fill="url(#linearGradient-1)"></path>
                <path d="M42.5333333,5.859375 C40.1071733,5.859375 38.1333333,3.88798828 38.1333333,1.46484375 C38.1333333,0.655859375 37.4766578,0 36.6666667,0 L7.33333333,0 C6.52334222,0 5.86666667,0.655859375 5.86666667,1.46484375 C5.86666667,3.88798828 3.89282667,5.859375 1.46666667,5.859375 C0.656675556,5.859375 0,6.51523437 0,7.32421875 L0,25.0976562 C0,29.3902344 1.15661333,33.3819336 3.43767111,36.9619141 C5.24235556,39.7942383 7.74654222,42.3640625 10.8809067,44.6000977 C15.5979022,47.965332 21.19656,50 22,50 C22.7616889,50 28.3338489,48.0140625 33.1191911,44.6001953 C36.2535556,42.3641602 38.7577422,39.7943359 40.5624267,36.9619141 C42.8433867,33.3819336 44,29.3902344 44,25.0976562 L44,7.32421875 C44,6.51523437 43.3433244,5.859375 42.5333333,5.859375 Z M38.1333333,25.0976562 C38.1333333,30.0850586 36.0248533,34.4839844 31.8664622,38.1723633 C28.5042756,41.1544922 24.5746844,42.9188477 22.5316178,43.7050781 C22.1912533,43.8360352 21.8142222,43.8357422 21.4738578,43.7039063 C19.4368533,42.9146484 15.5175289,41.1457031 12.15456,38.1660156 C7.98218667,34.469043 5.86666667,30.0722656 5.86666667,25.0976562 L5.86666667,11.6114258 C5.86666667,11.0891602 6.14504,10.6064453 6.59736,10.3444336 C8.15398222,9.44238281 9.45423111,8.14384766 10.3573067,6.58916016 C10.6196444,6.13740234 11.1030578,5.859375 11.6258756,5.859375 L32.3740267,5.859375 C32.8969422,5.859375 33.3802578,6.13740234 33.6426933,6.58916016 C34.5457689,8.14384766 35.8460178,9.44248047 37.40264,10.3444336 C37.8548622,10.606543 38.1333333,11.0892578 38.1333333,11.6114258 L38.1333333,25.0976562 Z M22,13.3789062 C16.33896,13.3789062 11.7333333,17.9788086 11.7333333,23.6328125 C11.7333333,29.2868164 16.33896,33.8867188 22,33.8867188 C27.66104,33.8867188 32.2666667,29.2868164 32.2666667,23.6328125 C32.2666667,17.9788086 27.66104,13.3789062 22,13.3789062 Z M26.2636978,22.4713867 L21.8636978,26.865918 C21.2910133,27.4378906 20.36232,27.4379883 19.7895378,26.865918 L17.5895378,24.6686523 C17.0167556,24.096582 17.0167556,23.1691406 17.5895378,22.5970703 C18.1622222,22.025 19.0909156,22.025 19.6636978,22.5970703 L20.8266667,23.7584961 L24.1896356,20.3998047 C24.76232,19.8277344 25.6910133,19.8277344 26.2637956,20.3998047 C26.83648,20.9717773 26.83648,21.8993164 26.2636978,22.4713867 L26.2636978,22.4713867 Z" id="Shape" fill="url(#linearGradient-2)"></path>
            </g>
        </g>
    </g>
</svg>

<svg width="44" height="50" xmlns="http://www.w3.org/2000/svg"><defs><linearGradient x1="50%" y1="100%" x2="50%" y2="0%" id="a"><stop stop-color="#C3FFE8" offset="0%"/><stop stop-color="#F0FFF4" offset="99.73%"/></linearGradient><linearGradient x1="50%" y1="100%" x2="50%" y2="0%" id="b"><stop stop-color="#00B59C" offset="0%"/><stop stop-color="#9CFFAC" offset="100%"/></linearGradient></defs><g fill="none"><path d="M22.004 45.268c-.364 0-.72-.067-1.06-.198-2.13-.825-6.228-2.677-9.763-5.808-4.5-3.987-6.781-8.753-6.781-14.164V11.61c0-1.04.56-2.011 1.461-2.534A8.896 8.896 0 009.09 5.854a2.943 2.943 0 012.537-1.46h20.748c1.042 0 2.014.56 2.537 1.46a8.896 8.896 0 003.228 3.223 2.938 2.938 0 011.461 2.534v13.487c0 5.424-2.274 10.191-6.76 14.17-3.535 3.135-7.645 4.982-9.781 5.804-.338.13-.693.196-1.055.196z" fill="url(#a)"/><path d="M42.533 5.86a4.402 4.402 0 01-4.4-4.395c0-.81-.656-1.465-1.466-1.465H7.333c-.81 0-1.466.656-1.466 1.465a4.402 4.402 0 01-4.4 4.394A1.467 1.467 0 000 7.324v17.774c0 4.292 1.157 8.284 3.438 11.864 1.804 2.832 4.309 5.402 7.443 7.638C15.598 47.965 21.197 50 22 50c.762 0 6.334-1.986 11.12-5.4 3.134-2.236 5.638-4.806 7.442-7.638C42.843 33.382 44 29.39 44 25.098V7.324c0-.809-.657-1.465-1.467-1.465zm-4.4 19.238c0 4.987-2.108 9.386-6.267 13.074-3.362 2.982-7.291 4.747-9.334 5.533-.34.131-.718.13-1.058-.001-2.037-.79-5.956-2.558-9.32-5.538-4.172-3.697-6.287-8.094-6.287-13.068V11.61c0-.522.278-1.005.73-1.267a10.365 10.365 0 003.76-3.755c.263-.452.746-.73 1.269-.73h20.748c.523 0 1.006.278 1.269.73a10.364 10.364 0 003.76 3.755c.452.263.73.745.73 1.267v13.487zM22 13.378c-5.661 0-10.267 4.6-10.267 10.255 0 5.654 4.606 10.254 10.267 10.254s10.267-4.6 10.267-10.254S27.66 13.379 22 13.379zm4.264 9.093l-4.4 4.395a1.468 1.468 0 01-2.074 0l-2.2-2.197a1.464 1.464 0 010-2.072 1.468 1.468 0 012.074 0l1.163 1.161L24.19 20.4a1.468 1.468 0 012.074 0c.572.572.572 1.5 0 2.071z" fill="url(#b)"/></g></svg>
